!!!SOCIAL_FUNCTION:	bird dance songs
!!!PDT:	1956
!!!OTL: No_184_Old_Man's_Dance_Song_(c).krn
!!!LANG: Non-Tone
!!!LING_GROUP: Muskogean
!!!REG: Florida
**kern
*staff1
=1-
*clefF4
*k[b-e-a-]
*M2/4
8.B-\L
16G\Jk
8A-\
16r
16A-\
=2
8.E-\L
16D\Jk
8D\
8r
=3||
*M3/4
8.BB-/L
16E-/Jk
8E-\L
8G\J
16G\LL
16E-\JJ
16r
16E-\
=4||
*M2/4
8.A-\L
16G\Jk
(8G\L
(8E-\J)
=5
(8G\L)
(8B-\J)
8.B-\L)
16c\Jk
=6
(16B-\LK
8A-\)
16G\Jk
8G\
16r
16G\
=7
8.E-\L
16D\Jk
8D\
8r
=8
8.BB-/L
16E-/Jk
8E-\L
8G\J
=9
16G\LK
8E-\
16D\Jk
(16D/LL
16BB-/JJ)
24G\LL
24G\
24G\JJ
=10
2G\
==
*-
